!!!COM: Scarlatti, Domenico
!!!CDT: 1685-1757
!!!OTL: Sonata in A major, L.240, K.369
!!!SCT: K. 240
!!!SCT: L. 369
!!!OMD: Allegro ([quarter-dot]=80)
**kern	**kern	**dynam
*staff2	*staff1	*staff1/2
*Icemba	*Icemba	*
*I"L.240 (K.369)	*I"L.240 (K.369)	*
*>[A,A,B,B]	*>[A,A,B,B]	*>[A,A,B,B]
*>norep[A,B]	*>norep[A,B]	*>norep[A,B]
*>A	*>A	*>A
*clefF4	*clefG2	*
*k[f#c#g#]	*k[f#c#g#]	*
*M3/8	*M3/8	*
*MM132	*MM132	*
=1-	=1-	=1-
4.A	(16aaLL	f
.	16cc#	.
.	16dd	.
.	16b	.
.	16cc#	.
.	16aJJ)	.
=2	=2	=2
4.A	(16aaLL	.
.	16cc#	.
.	16dd	.
.	16b	.
.	16cc#	.
.	16aJJ)	.
=3	=3	=3
(16aLL	4.aaM	.
16c#	.	.
16d	.	.
16B	.	.
16c#	.	.
16AJJ)	.	.
=4	=4	=4
(16aLL	4.aaM	.
16c#	.	.
16d	.	.
16B	.	.
16c#	.	.
16AJJ)	.	.
=5	=5	=5
4.a	(16ccc#LL	.
.	16aa	.
.	16ee	.
.	16cc#	.
.	16a	.
.	16eJJ)	.
!!LO:LB:g=z
=6	=6	=6
(16DLL	(16aaLK	.
16d	8ff#	.
16C#	.	.
16c#	8ee	.
16BB	.	.
16BJJ	16ddJk)	.
=7	=7	=7
4.AA)	(16ccc#LL	.
.	16aa	.
.	16ee	.
.	16cc#	.
.	16a	.
.	16eJJ)	.
=8	=8	=8
(16DLL	(16aaLK	.
16d	8ff#	.
16C#	.	.
16c#	8ee	.
16BB	.	.
16BJJ	16ddJk)	.
=9	=9	=9
16AALL	4cc#m	.
16C#	.	.
16E	.	.
16A)	.	.
(16BB	(8dd	mf
16G#JJ	.	.
=10	=10	=10
16C#LL	8ee'L)	.
16A	.	.
16D	8ff#'	.
16B	.	.
16E	8gg#'J	.
16c#JJ	.	.
!!LO:LB:g=z
=11	=11	=11
16F#LL	8aa'L	f
16d	.	.
16G#	8dd'	.
16e	.	.
16A	[8cc#J	.
16eJJ	.	.
=12	=12	=12
4.E)	8cc#L]	.
.	(16bLM	.
.	16aJ)	.
.	8b'J	.
=13	=13	=13
4.E 4.e	(16eeLL<	p
.	16g#	.
.	16a	.
.	16f#	.
.	16g#	.
.	16eJJ)	.
=14	=14	=14
4.E 4.d	(16eeLL<	.
.	16g#	.
.	16a	.
.	16f#	.
.	16g#	.
.	16eJJ)	.
=15	=15	=15
4.E 4.d	(16eeLL<	.
.	16g#	.
.	16a	.
.	16f#	.
.	16g#	.
.	16eJJ)	.
!!LO:LB:g=z
=16	=16	=16
4.E 4.c#	(16eeLL<	<
.	16a#	.
.	16b	.
.	16g#	.
.	16a#	.
.	16f#JJ)	.
=17	=17	=17
4.E 4.c#	(16eeLL<	.
.	16a#	.
.	16b	.
.	16g#	.
.	16a#	.
.	16f#JJ)	.
=18	=18	=18
4.D# 4.B	(16ff#LL	.
.	16b	.
.	16cc#	.
.	16a#	.
.	16b	.
.	16f#JJ)	.
=19	=19	=19
4.Dn 4.B	(16ff#LL	.
.	16b	.
.	16cc#	.
.	16a#	.
.	16b	.
.	16f#JJ)	.
=20	=20	=20
4.C# 4.A	(16eeLL<	.
.	16an	.
.	16b	.
.	16g#	.
.	16a	.
.	16eJJ)	.
!!LO:LB:g=z
=21	=21	=21
(16BBLL	4.b 4.aa	f
16D#	.	.
16F#	.	.
16B	.	.
16d#	.	.
16BJJ	.	.
=22	=22	=22
16ELL	4.b 4.gg#	.
16G#	.	.
16B	.	.
16e	.	.
16g#	.	.
16eJJ	.	.
*clefG2	*	*
=23	=23	=23
16ALL	4.ee 4.ccc#	.
16c#	.	.
16e	.	.
16a	.	.
16cc#	.	.
16aJJ	.	.
=24	=24	=24
8g#'L)	(16bbLL	.
.	16ee	.
8f#'	16dd#	.
.	16aa	.
8e'J	16gg#	.
.	16bJJ	.
=25	=25	=25
8A'L	8cc#'L)	.
8B'	(16ff#K	.
.	8dd#	.
8c#'J	.	.
.	16eeJk	.
!!LO:LB:g=z
=26	=26	=26
8B' 8b'L	16ff#'LK)	.
.	(8dd#	.
8A' 8a'	.	.
.	8cc#	.
8G#' 8g#'J	.	.
.	[16bJk	.
*clefF4	*	*
=27	=27	=27
8F#' 8f#'L	16bLK]	.
.	8a	.
8E' 8e'	.	.
.	8g#	.
8D#' 8d#'J	.	.
.	[16f#Jk)	.
=28	=28	=28
8E' 8e'L	8f#L]	.
8D#' 8d#'	(16g#L	.
.	16f#J	.
8C#' 8c#'J	8e'J)	.
=29	=29	=29
4.BB^	(16bLL	.
.	16f#	.
.	16d#	.
.	16BJJ	.
*	*clefF4	*clefF4
.	16F#LL	.
.	16D#JJ	.
=30	=30	=30
4.r	4.BBMM)	.
=31	=31	=31
4.r	4.r	.
*	*clefG2	*clefG2
!!LO:LB:g=z
=32	=32	=32
4.r	8e'L	p
.	8e'	.
.	8e'J	.
=33	=33	=33
(4.d	8e'L	.
.	8e'	.
.	8e'J	.
=34	=34	=34
4.cn)	8e'L	.
.	8e'	.
.	8a'J	.
=35	=35	=35
*ped	*	*
(<4.A 4.cn	8e'L	<
.	8e'	.
.	8a'J	.
=36	=36	=36
*ped	*	*
!LO:N:vis=4	!	!
4.G# 4.B	8e'L<	.
.	8e'	.
.	8ee'J	.
=37	=37	=37
4.E 4.B	8e'L<	.
.	8e'	.
.	8gg#'J	.
=38	=38	=38
*ped	*	*
4.Cn) 4.A	8e'L	.
.	8e'	.
.	8cccn'J	.
!!LO:LB:g=z
=39	=39	=39
4.AA^ 4.E^ 4.A^	8e'L	.
.	8e'	.
.	8eee'J	.
=40	=40	=40
*ped	*	*
4.GG#^\ 4.E^\ 4.G#^\	8e'L	.
.	8e'	.
.	8eee'J	.
=41	=41	=41
4.GG#^\ 4.E^\ 4.G#^\	8e'L	.
.	8e'	.
.	([8eee^J	f
=42	=42	=42
*ped	*	*
4.AA^ 4.E^ 4.A^	16eeeLL]	.
.	16cccn	.
.	16aa	.
.	16ee	.
.	16ccn	.
.	16aJJ	.
=43	=43	=43
4.AA^ 4.E^ 4.A^	16eeLL	.
.	16ccn	.
.	16a	.
.	16e	.
.	16cn	.
.	16AJJ	.
=44	=44	=44
*Xped	*	*
4.BBB^ 4.BB^	8G#')	.
.	4F#M	.
*clefG2	*	*
!!LO:LB:g=z
=45	=45	=45
(16bLL	8dd#' 8ff#'L	.
16BJJ)	.	.
*clefF4	*	*
(16eLL	8ee' 8gg#'	.
16E)	.	.
(16B	8ff#' 8aa'J	.
16BBJJ)	.	.
=46	=46	=46
4.EE^ 4.E^	16ee@ (16gg#LLm	.
.	16ff#	.
.	16gg#	.
.	16aaJ	.
.	8gg#' 8bb'J)	.
=47	=47	=47
(16eLL	8ee' 8gg#'L	.
16E)	.	.
(16B	8dd#' 8ff#'	.
16BB)	.	.
(16E	8ee'J	.
16EEJJ)	.	.
=48	=48	=48
4.BBB^ 4.BB^	(16ff#LLM	.
.	16ee	.
.	16ff#	.
.	16gg#J	.
.	8ff#' 8aa'J)	.
*clefG2	*	*
=49	=49	=49
(16bLL	8dd#' 8ff#'L	.
16BJJ)	.	.
*clefF4	*	*
(16eLL	8ee' 8gg#'	.
16E)	.	.
(16B	8ff#' 8aa'J	.
16BBJJ)	.	.
!!LO:LB:g=z
=50	=50	=50
8E'L	(16gg#LL	.
.	16ff#	.
8F#'	16gg#	.
.	16aa	.
8G#'J	16bb	.
.	16bJJ	.
=51	=51	=51
8A'L	16cc#LL	.
.	16aa	.
8B'	16gg#	.
.	16ff#	.
8BB'J	16ee	.
.	16dd#JJ	.
=52	=52	=52
4.EE^	8ee'L<)	.
.	8e'	p
.	8e'J	.
=53	=53	=53
4.E (4.d	8e'L	.
.	8e'	.
.	8e'J	.
=54	=54	=54
4.E 4.cn)	8e'L	.
.	8e'	.
.	8e'J	.
=55	=55	=55
(<4.E 4.A 4.cn	8e'L	<
.	8e	.
.	8e'J	.
!!LO:LB:g=z
=56	=56	=56
4.D# 4.A 4.B	8a'L	.
.	8a'	.
.	8a'J	.
=57	=57	=57
4.E) 4.B	8g#'L	.
.	8g#'	.
.	8g#'J	.
=58	=58	=58
(<4.AA 4.A	8f#'L	.
.	8f#'	.
.	8f#'J	.
=59	=59	=59
4.Cn 4.A	(8eL	mf
.	8d#)	.
!	!LO:TX:c:i:t=rall.	!
.	[8eJ	.
=60	=60	=60
4.BB') 4.B'	8eL]	.
.	(16d#L	.
.	16c#J)	.
.	8d#J	.
*clefG2	*	*
=61	=61	=61
!	!	!LO:DY:t=%s a tempo
(16bLL	8dd#' 8ff#'L	f
16BJJ)	.	.
*clefF4	*	*
(16eLL	8ee' 8gg#'	.
16E)	.	.
(16B	8ff#' 8aa'J	.
16BBJJ)	.	.
!!LO:LB:g=z
=62	=62	=62
4.EE^ 4.E^	(16gg#LLm	.
.	16ff#	.
.	16gg#	.
.	16aaJ	.
.	8gg#' 8bb'J)	.
=63	=63	=63
(16eLL	8ee' 8gg#'L	.
16E)	.	.
(16B	8dd#' 8ff#'	.
16BB)	.	.
(16E	8ee'J	.
16EEJJ)	.	.
=64	=64	=64
4.BBB^ 4.BB^	(16ff#LLM	.
.	16ee	.
.	16ff#	.
.	16gg#J	.
.	8ff#' 8aa'J)	.
*clefG2	*	*
=65	=65	=65
(16bLL	8dd#' 8ff#'L	.
16BJJ)	.	.
*clefF4	*	*
(16eLL	8ee' 8gg#'	.
16E)	.	.
(16B	8ff#' 8aa'J	.
16BBJJ)	.	.
=66	=66	=66
8E'L	(16gg#LL	.
.	16ff#	.
8F#'	16gg#	.
.	16aa	.
8G#'J	16bb	.
.	16bJJ	.
!!LO:LB:g=z
=67	=67	=67
8A'L	16cc#LL	.
.	16aa	.
8B'	16gg#	.
.	16ff#	.
8BB'J	16ee	.
.	16dd#JJ	.
*clefG2	*	*
=68	=68	=68
(16eLL	16bb'LK)	.
16ee	(8gg#	.
16d#	.	.
16dd#	8ff#	.
16c#	.	.
16cc#JJ	16eeJk	.
=69	=69	=69
4.B)	16dd#LL<	.
.	16cc#	.
.	16b	.
.	16a	.
.	16g#	.
.	16f#JJ)	.
*clefF4	*	*
=70	=70	=70
(16ELL	16bb'LK	.
16e	(8gg#	.
16D#	.	.
16d#	8ff#	.
16C#	.	.
16c#JJ	16eeJk	.
=71	=71	=71
4.BB)	16dd#LL<	.
.	16cc#	.
.	16b	.
.	16a	.
.	16g#	.
.	16f#JJ)	.
!!LO:LB:g=z
=72	=72	=72
(16EELL	16bb'LK	.
16E	(8gg#	.
16DD#	.	.
16D#	8ff#	.
16CC#	.	.
16C#JJ	16eeJk	.
=73	=73	=73
4.BBB)	16dd#LL	.
.	16cc#	.
.	16b	.
.	16a	.
.	16g#	.
.	16f#JJ	.
=74	=74	=74
(<4EE	16eLL	.
.	16g#	.
.	16b	.
.	16ee	.
8E)	16gg#	.
.	16bbJJ	.
=75	=75	=75
(8AL	16cc#LL	.
.	16aaJ	.
8B')	8ee')	.
8BB'J	8dd#'Jm	.
*clefG2	*	*
=76	=76	=76
(16eLL	16bb'LK	.
16ee	(8gg#	.
16d#	.	.
16dd#	8ff#	.
16c#	.	.
16cc#JJ	16eeJk	.
!!LO:LB:g=z
=77	=77	=77
4.B)	16dd#LL<	.
.	16cc#	.
.	16b	.
.	16a	.
.	16g#	.
.	16f#JJ)	.
*clefF4	*	*
=78	=78	=78
(16ELL	16bb'LK	.
16e	(8gg#	.
16D#	.	.
16d#	8ff#	.
16C#	.	.
16c#JJ	16eeJk	.
=79	=79	=79
4.BB)	16dd#LL<	.
.	16cc#	.
.	16b	.
.	16a	.
.	16g#	.
.	16f#JJ)	.
=80	=80	=80
(16EELL	16bb'LK	.
16E	(8gg#	.
16DD#	.	.
16D#	8ff#	.
16CC#	.	.
16C#JJ	16eeJk	.
=81	=81	=81
4.BBB)	16dd#LL<	.
.	16cc#	.
.	16b	.
.	16a	.
.	16g#	.
.	16f#JJ	.
!!LO:LB:g=z
=82	=82	=82
(<4EE	16eLL	.
.	16g#	.
.	16b	.
.	16ee	.
8E)	16gg#	.
.	16bbJJ	.
=83	=83	=83
(8AL	16cc#LL	.
.	16aaJ	.
8B')	8ee')	.
8BB'J	8dd#'Jm	.
=84	=84	=84
8r	(16bbLL	.
.	16gg#	.
(8GG#L	16ee	.
.	16b	.
8EEJ	16g#	.
.	16eJJ	.
=85	=85	=85
8AAL	16c#LL	.
.	16aJ	.
8BB)	8e')	.
8BBB'J	8d#'Jm<	.
=86	=86	=86
4.EE^	4.e^	.
!!LO:LB:g=z
=87:|!|:	=87:|!|:	=87:|!|:
*>B	*>B	*>B
4.EE	(8e'L	p
.	8e'	.
.	8e'J	.
=88	=88	=88
!	!	!LO:DY:rj
(4.dn	8e'L	mf
.	8e'	.
.	8e'J)	.
=89	=89	=89
4.cn)	8e' 8ee'L<	<
.	8e' 8ee'	.
.	8e' 8ee'J	[[
=90	=90	=90
(4.cn	(16ggnLL	f
.	16ccn	.
.	16dd	.
.	16b	.
.	16cc	.
.	16gnJJ	.
=91	=91	=91
4.B)	16ddLL	.
.	16fn	.
.	16gn	.
.	16e	.
.	16f	.
.	16dJJ	.
=92	=92	=92
(16cnLL	4e)	.
16E	.	.
16Fn	.	.
16D	.	.
16E	8ccn [8ee	.
16CnJJ	.	.
!!LO:LB:g=z
=93	=93	=93
4.GGn)	8eeL]	.
.	(16ddLM	.
.	16ccnJ)	.
.	8ddJ	.
=94	=94	=94
4.r	4.r	.
*clefG2	*	*
=95	=95	=95
(4.gn	8b-' (8bb-'L	p
.	8b-' 8bb-'	.
.	8b-' 8bb-'J)	.
=96	=96	=96
4.fn	(8b-' 8aa-' 8bb-'L	<
.	8b-' 8aa-' 8bb-'	.
.	8b-' 8aa-' 8bb-'J)	.
=97	=97	=97
4.e- 4.b-	(8ggn' 8bb-'L	.
.	8gg' 8bb-'	.
.	8gg' 8bb-'J)	.
=98	=98	=98
*	*^	*
4.d- 4.b-	4.bb-	(8ffnLM	.
.	.	8een)	.
.	.	8ffJ	.
*	*v	*v	*
!!LO:LB:g=z
=99	=99	=99
4.cn) 4.b-	(16bb-LL	f
.	16ee	.
.	16ffn	.
.	16dd	.
.	16ee	.
.	16ccnJJ	.
=100	=100	=100
(16ccnLL	8ggn 8bb-L)	.
16cnJJ)	.	.
*clefF4	*	*
(16fnLL	8ffn' 8aa'	.
16Fn)	.	.
(16cn	8ee' 8gg'J	.
16CnJJ)	.	.
=101	=101	=101
4.FFn^ 4.Fn^	(16aaLLm	.
.	16ggn	.
.	16aa	.
.	16bb-J	.
.	8aa' 8cccn'J)	.
=102	=102	=102
(16fnLL	8ffn' 8aa'L	.
16Fn)	.	.
(16cn	8ee' 8ggn'	.
16Cn)	.	.
(16Fn	8ff'J	.
16FFnJJ)	.	.
=103	=103	=103
4.CCn^ 4.Cn^	(16ggnLLM	.
.	16ffn	.
.	16gg	.
.	16aaJ	.
.	8gg' 8bb-'J)	.
!!LO:LB:g=z
=104	=104	=104
(16cnLL	8ggn' 8bb-'L	.
16Cn)	.	.
(16Fn	8ffn' 8aa'	.
16FFn)	.	.
(16C	8ee' 8gg'J	.
16CCnJJ)	.	.
=105	=105	=105
4.FFn^ 4.Fn^	(16aa-LLM	.
.	16ggn	.
.	16aa-	.
.	16bb-J	.
.	8aa-' 8cccn'J)	.
=106	=106	=106
8Fn' 8e-'L	4.r	p
8F' 8e-'	.	.
8F' 8e-'J	.	.
=107	=107	=107
8Fn' 8d'L	4.r	.
8F' 8d'	.	.
8F' 8d'J	.	.
=108	=108	=108
8Fn' 8cn'L	4.aa-	<
8F' 8c'	.	.
8F' 8c'J	.	.
!!LO:LB:g=z
=109	=109	=109
*ped	*	*
8Fn' 8B' 8d'L	4.dd 4.ddd	.
8F' 8B' 8d'	.	.
8F' 8B' 8d'J	.	.
=110	=110	=110
8Fn' 8B' 8d'L	4.dd 4.ddd	.
8F' 8B' 8d'	.	.
8F' 8B' 8d'J	.	.
=111	=111	=111
8Fn' 8B' 8d'L	4.dd 4.ddd	f
8F' 8B' 8d'	.	.
8F' 8B' 8d'J	.	.
=112	=112	=112
8Fn' 8B' 8d'L	4.dd 4.ddd	>
8F' 8B' 8d'	.	.
8F' 8B' 8d'J	.	.
=113	=113	=113
*ped	*	*
8E' 8B' 8d'L	4.dd 4.gg#X 4.ddd	.
8E' 8B' 8d'	.	.
8E' 8B' 8d'J	.	.
=114	=114	=114
*	*^	*
*Xped	*	*	*
8E' 8A' 8cn'L	(8cccnLM	4.ee	mf
8E' 8A' 8c'	8bb)	.	.
8E' 8A' 8c'J	(8cccJ	.	.
!!LO:LB:g=z
=115	=115	=115	=115
8E' 8B' 8d'L	8bbL	4.dd	.
8E' 8B' 8d'	8aa	.	.
8E' 8B' 8d'J	8bbJ)	.	.
=116	=116	=116	=116
8E' 8d#'L	(8aaLM	4.ccn	.
8E' 8d#'	8gg#X)	.	.
8E' 8d#'J	([8aaJ	.	.
=117	=117	=117	=117
!	!LO:TX:i:c:t=rit.	!	!
4.E^ 4.e^	8aaL]	4.b	.
.	16gg#L	.	.
.	16ff#J	.	.
.	8eeJ)	.	.
*	*v	*v	*
*clefG2	*	*
=118	=118	=118
!	!	!LO:DY:t=%s a tempo
(16eeLL	8gg#' 8bb'L	f
16e)	.	.
(16a	8aa' 8ccc#X'	.
16AJJ)	.	.
*clefF4	*	*
(16eLL	8bb' 8ddd'J	.
16EJJ)	.	.
=119	=119	=119
4.AA^ 4.A^	(16ccc#LLm	.
.	16bb	.
.	16aa	.
.	16gg#J	.
.	8aa'J)	.
!!LO:LB:g=z
=120	=120	=120
(16aLL	8aa' 8ccc#'L	.
16A)	.	.
(16e	8gg#' 8bb'	.
16E)	.	.
(16A	8aa'J	.
16AAJJ)	.	.
=121	=121	=121
4.EE^ 4.E^	(16bbLLM	.
.	16aa	.
.	16bb	.
.	16ccc#J	.
.	8gg#' 8bb'J)	.
=122	=122	=122
(16eLL	8gg#' 8bb'L	.
16E)	.	.
(16A	8aa' 8ccc#'	.
16AA)	.	.
(16E	8bb' 8ddd'J	.
16EEJJ)	.	.
=123	=123	=123
8AA'L	(16ccc#LL	.
.	16bb	.
8BB'	16aa	.
.	16gg#	.
8C#'J	16aa	.
.	16eeJJ	.
=124	=124	=124
8D'L	16ff#LL	.
.	16dd	.
8E'	16cc#	.
.	16b	.
8EE'J	16a	.
.	16g#JJ)	.
!!LO:LB:g=z
=125	=125	=125
4.AA	8A' 8a'L	.
.	8A' 8a'	p
.	8A' 8a'J	.
=126	=126	=126
4.AA 4.Gn	8B-' 8gn'L	<
.	8B-' 8g'	.
.	8B-' 8g'J	.
=127	=127	=127
4.AA 4.Gn	8A' 8c#'L	.
.	8A' 8c#'	.
.	8A' 8c#'J	.
=128	=128	=128
4.AA 4.Fn	8A' 8d'L	.
.	8A' 8d'	.
.	8A' 8d'J	.
=129	=129	=129
4.GG#X 4.E	8d' 8e'L	mf
.	8d' 8e'	.
.	8d' 8e'J	.
=130	=130	=130
4.AA 4.E	8cn' 8e'L	.
.	8c' 8e'	.
.	8c' 8e'J	.
!!LO:LB:g=z
=131	=131	=131
4.DD 4.D	8B' 8d'L	.
.	8B' 8d'	.
.	8B' 8d'J	.
=132	=132	=132
*	*^	*
4.FFn 4.D	(4.d	(8ALM	.
.	.	8G#)	.
.	.	[8AJ	.
*	*v	*v	*
=133	=133	=133
!	!LO:TX:c:i:t=rit.	!
4.EE 4.E	8A] 8cnL)	.
.	(16BLm<	>
.	16AJ)	.
.	8BJ	]
*clefG2	*	*
=134	=134	=134
!	!	!LO:DY:t=%s a tempo
(16eeLL	8gg#' 8bb'L	f
16e)	.	.
(16a	8aa' 8ccc#X'	.
16AJJ)	.	.
*clefF4	*	*
(16eLL	8bb' 8ddd'J	.
16EJJ)	.	.
=135	=135	=135
4.AA^ 4.A^	(16ccc#LLm	.
.	16bb	.
.	16aa	.
.	16gg#J	.
.	8aa'J)	.
!!LO:LB:g=z
=136	=136	=136
(16aLL	8aa' 8ccc#'L	.
16A)	.	.
(16e	8gg#' 8bb'	.
16E)	.	.
(16A	8aa'J	.
16AAJJ)	.	.
=137	=137	=137
4.EE^ 4.E^	(16bbLLM	.
.	16aa	.
.	16bb	.
.	16ccc#J	.
.	8bb'J)	.
=138	=138	=138
(16eLL	8gg#' 8bb'L	.
16E)	.	.
(16A	8aa' 8ccc#'	.
16AA)	.	.
(16E	8bb 8dddJ	.
16EEJJ)	.	.
=139	=139	=139
8AA'L	(16ccc#LL	.
.	16bb	.
8BB'	16aa	.
.	16gg#	.
8C#'J	16aa	.
.	16eeJJ	.
=140	=140	=140
8D'L	16ff#LL	.
.	16dd	.
8E'	16cc#	.
.	16b	.
8EE'J	16a	.
.	16g#JJ	.
!!LO:LB:g=z
=141	=141	=141
(16ALL	16ee'LK)	.
16a	(8cc#	.
16G#	.	.
16g#	8b	.
16F#	.	.
16f#JJ	16aJk	.
=142	=142	=142
4.E)	16g#LL	.
.	16f#	.
.	16e	.
.	16d	.
.	16c#	.
.	16BJJ)	.
=143	=143	=143
(16AALL	16ee'LK	.
16A	(8cc#	.
16GG#	.	.
16G#	8b	.
16FF#	.	.
16F#JJ	16aJk	.
=144	=144	=144
4.EE)	16g#LL	.
.	16f#	.
.	16e	.
.	16d	.
.	16c#	.
.	16BJJ	.
=145	=145	=145
4AA	16ALL	.
.	16c#	.
.	16e	.
.	16aJJ	.
(8AA	16cc#LL	.
.	16aaJJ	.
!!LO:LB:g=z
=146	=146	=146
8DL	16ff#LL	.
.	16dd	.
8E')	16cc#	.
.	16b	.
8EE'J	16a	.
.	16g#JJ	.
=147	=147	=147
(16ALL	16ee'LK)	.
16a	(8cc#	.
16G#	.	.
16g#	8b	.
16F#	.	.
16f#JJ	16aJk	.
=148	=148	=148
4.E)	16g#LL	.
.	16f#	.
.	16e	.
.	16d	.
.	16c#	.
.	16BJJ)	.
=149	=149	=149
(16AALL	16ee'LK	.
16A	(8cc#	.
16GG#	.	.
16G#	8b	.
16FF#	.	.
16F#JJ	16aJk	.
=150	=150	=150
4.EE)	16g#LL	.
.	16f#	.
.	16e	.
.	16d	.
.	16c#	.
.	16BJJ	.
!!LO:LB:g=z
=151	=151	=151
4AA	16ALL	.
.	16c#	.
.	16e	.
.	16aJJ	.
(8AA	16cc#LL	.
.	16aaJJ	.
=152	=152	=152
8DL	16ff#LL	.
.	16dd	.
8E')	16cc#	.
.	16b	.
8EE'J	16a	.
.	16g#JJ)	.
=153	=153	=153
8AA'L	(16aaLL<	.
.	16ee	.
8BB'	16cc#	.
.	16a	.
8C#'J	16e	.
.	16c#JJ	.
=154	=154	=154
8D'L	16f#LL	.
.	16d	.
8E'	16c#	.
.	16B	.
8EE'J	16A	.
.	16G#JJ	.
=155	=155	=155
4.AAA^ 4.AA^	4.A^)	.
==:|!	==:|!	==:|!
*-	*-	*-
!!!RDF**kern: > = above
!!!RDF**kern: < = below
!!!RDF**kern: @ = marked note, color="silver", optional note
!!!PTL: Domenico Scarlatti: Opere complete per clavicembalo, vol. 1
!!!PED: Longo, Alessandro
!!!PPR: Ricordi
!!!PPP: Milan
!!!PDT: 1906-1913
!!!ENC: Craig Stuart Sapp
!!!END: 2006/08/11
!!!EED: Craig Stuart Sapp
!!!EEV: 2020/12/18
